src/Trakx.Data.Market.Server/wwwroot/crypto-icons/svg/local/lending.svg

<svg width="40" height="40" viewBox="0 0 40 40" fill="#2BCEA1" xmlns="http://www.w3.org/2000/svg">
  <path opacity="0.8" d="M20 40C31.0457 40 40 31.0457 40 20C40 8.9543 31.0457 0 20 0C8.9543 0 0 8.9543 0 20C0 31.0457 8.9543 40 20 40Z"/>
  <path d="M20 40C31.046 40 40 31.046 40 20C40 8.954 31.046 0 20 0C8.954 0 0 8.954 0 20C0 31.046 8.954 40 20 40Z"/>
  <path d="M20 35C28.284 35 35 28.284 35 20C35 11.716 28.284 5 20 5C11.716 5 5 11.716 5 20C5 28.284 11.716 35 20 35Z" fill="white" fill-opacity="0.7"/>
  <path d="M20.1889 30.354C19.6449 30.251 18.9609 30.071 17.4689 29.639C16.3696 29.3213 15.2709 29.0013 14.1729 28.679C13.2019 28.393 12.3769 28.172 12.3389 28.186C12.2939 28.203 12.2709 28.288 12.2709 28.435C12.2709 28.712 12.1739 28.906 11.9949 28.988C11.7929 29.081 10.5809 29.114 10.4269 29.032C10.1949 28.907 9.35095 27.364 8.94295 26.321C8.41295 24.963 8.09995 23.591 7.94295 21.931C7.89695 21.439 7.89695 21.3 7.94395 21.271C7.97695 21.251 8.56495 21.219 9.25095 21.201C11.2379 21.151 11.6979 21.154 11.8429 21.221C12.0159 21.301 12.1249 21.541 12.1249 21.844C12.1249 21.979 12.1449 22.101 12.1689 22.116C12.1939 22.131 12.7569 22.124 13.4199 22.1C16.2109 22 17.3879 22.2 19.1319 23.073C19.4999 23.257 19.9589 23.46 20.1519 23.525C20.7319 23.719 22.2309 23.906 23.6859 23.967C24.5439 24.003 24.7279 24.047 24.9679 24.271C25.3979 24.675 25.3979 25.49 24.9679 25.893C24.6739 26.168 24.5739 26.184 22.8359 26.231C18.4529 26.35 18.6499 26.341 18.5409 26.439C18.4849 26.489 18.4409 26.561 18.4409 26.598C18.4409 26.737 18.5869 26.943 18.7179 26.988C18.8439 27.031 23.4379 26.947 24.2209 26.887C24.6779 26.852 25.0479 26.697 25.3639 26.407C25.6159 26.177 25.7489 26.115 27.3679 25.463C30.2629 24.297 30.8459 24.083 31.2129 24.053C31.4649 24.031 31.5789 24.044 31.7169 24.109C32.0899 24.287 32.2059 24.764 31.9649 25.133C31.8029 25.381 31.7729 25.403 30.8519 25.907L28.4219 27.244C26.9818 28.0383 25.5408 28.8309 24.0989 29.622C23.2279 30.102 22.8139 30.272 22.2789 30.374C21.7439 30.475 20.7839 30.466 20.1889 30.354ZM28.1559 20.392V16.747L28.0439 16.64C27.9819 16.58 27.3439 16.084 26.6239 15.537C25.4468 14.6436 24.2735 13.7452 23.1039 12.842C21.8799 11.897 21.8739 11.893 21.7109 11.893C21.5309 11.893 21.4939 11.92 19.6919 13.31C18.7216 14.0583 17.7493 14.8039 16.7749 15.547C16.0069 16.132 15.3469 16.659 15.3099 16.717C15.2549 16.804 15.2419 17.157 15.2419 18.573C15.2419 19.535 15.2409 20.492 15.2379 20.699L15.2339 21.077L14.5659 21.064L13.8979 21.05L13.8859 19.471C13.8789 18.603 13.8639 17.866 13.8519 17.834C13.8349 17.79 13.7749 17.794 13.6039 17.852C13.1209 18.017 12.5089 17.794 12.2899 17.372C12.2529 17.301 12.2219 17.115 12.2219 16.96C12.2219 16.488 12.1559 16.557 13.9919 15.138C14.4169 14.81 14.8099 14.479 14.8659 14.404C14.9609 14.274 14.9679 14.189 14.9909 12.784L15.0149 11.302L15.1299 11.209C15.2549 11.107 15.2859 11.105 16.4199 11.107C17.3819 11.11 17.3899 11.115 17.4079 11.753C17.4139 12.003 17.4319 12.26 17.4459 12.323C17.4719 12.434 17.4749 12.435 17.6039 12.35C17.6759 12.303 18.4449 11.717 19.3139 11.047C20.1829 10.378 21.0109 9.76998 21.1549 9.69698C21.5329 9.50198 21.8789 9.50898 22.2749 9.71898C22.4379 9.80598 23.1109 10.293 23.7699 10.8C27.2119 13.452 29.1499 14.942 29.8629 15.488C30.8649 16.253 31.0159 16.39 31.1249 16.63C31.1804 16.7348 31.2093 16.8516 31.2091 16.9701C31.2089 17.0887 31.1797 17.2054 31.1239 17.31C30.8949 17.804 30.3189 18.034 29.7859 17.845C29.6809 17.807 29.5769 17.787 29.5559 17.801C29.5339 17.814 29.5159 19.111 29.5159 20.683V23.541L28.8799 23.789C28.5299 23.926 28.2249 24.038 28.1999 24.038C28.1739 24.038 28.1559 22.565 28.1559 20.392ZM19.9209 19.742C19.8069 19.628 19.8009 19.592 19.8009 19.095C19.8009 18.75 19.8209 18.548 19.8579 18.51C19.9259 18.443 21.0479 18.427 21.1499 18.492C21.1959 18.522 21.2079 18.695 21.1979 19.184L21.1849 19.836L20.6129 19.849C20.0609 19.863 20.0379 19.859 19.9209 19.742ZM22.2099 19.783C22.1939 19.741 22.1799 19.447 22.1799 19.129C22.1799 18.609 22.1899 18.547 22.2739 18.502C22.3739 18.448 23.3829 18.432 23.5119 18.481C23.5759 18.505 23.5889 18.605 23.5889 19.079C23.5889 19.612 23.5819 19.656 23.4769 19.754C23.3749 19.85 23.3129 19.86 22.8019 19.86C22.3339 19.86 22.2349 19.847 22.2099 19.783ZM19.8339 17.594C19.8149 17.576 19.7999 17.325 19.7999 17.037C19.7999 16.554 19.8099 16.503 19.9169 16.377C20.0279 16.248 20.0599 16.24 20.5019 16.224C20.7599 16.214 21.0239 16.221 21.0909 16.237L21.2109 16.267L21.1979 16.934L21.1849 17.601L20.5259 17.615C20.1639 17.622 19.8519 17.613 19.8339 17.595V17.594ZM22.2109 17.55C22.1539 17.402 22.1769 16.337 22.2389 16.275C22.3279 16.185 23.2169 16.198 23.3969 16.29C23.5769 16.384 23.5969 16.467 23.5789 17.091L23.5649 17.601L22.9029 17.615C22.3309 17.626 22.2359 17.617 22.2109 17.55Z"/>
</svg>

<svg xmlns="http://www.w3.org/2000/svg" width="40" height="40" fill="none">
  <circle opacity=".8" cx="20" cy="20" r="20" fill="#AAB5D5"/>
  <path d="M20 40c11.046 0 20-8.954 20-20S31.046 0 20 0 0 8.954 0 20s8.954 20 20 20z" fill="#2bcea1"/>
  <path d="M20 35c8.284 0 15-6.716 15-15 0-8.284-6.716-15-15-15-8.284 0-15 6.716-15 15 0 8.284 6.716 15 15 15z" fill="ivory" fill-opacity=".698"/>
  <path d="M20.189 30.354c-.544-.103-1.228-.283-2.72-.715a799.164 799.164 0 01-3.296-.96c-.971-.286-1.796-.507-1.834-.493-.045.017-.068.102-.068.249 0 .277-.097.471-.276.553-.202.093-1.414.126-1.568.044-.232-.125-1.076-1.668-1.484-2.711-.53-1.358-.843-2.73-1-4.39-.046-.492-.046-.631.001-.66.033-.02.621-.052 1.307-.07 1.987-.05 2.447-.047 2.592.02.173.08.282.32.282.623 0 .135.02.257.044.272.025.015.588.008 1.251-.016 2.791-.1 3.968.1 5.712.973.368.184.827.387 1.02.452.58.194 2.079.381 3.534.442.858.036 1.042.08 1.282.304.43.404.43 1.219 0 1.622-.294.275-.394.291-2.132.338-4.383.119-4.186.11-4.295.208-.056.05-.1.122-.1.159 0 .139.146.345.277.39.126.043 4.72-.041 5.503-.101.457-.035.827-.19 1.143-.48.252-.23.385-.292 2.004-.944 2.895-1.166 3.478-1.38 3.845-1.41.252-.022.366-.009.504.056.373.178.489.655.248 1.024-.162.248-.192.27-1.113.774l-2.43 1.337a2197.834 2197.834 0 01-4.323 2.378c-.871.48-1.285.65-1.82.752-.535.101-1.495.092-2.09-.02zm7.967-9.962v-3.645l-.112-.107c-.062-.06-.7-.556-1.42-1.103a527.347 527.347 0 01-3.52-2.695c-1.224-.945-1.23-.949-1.393-.949-.18 0-.217.027-2.019 1.417a685.3 685.3 0 01-2.917 2.237c-.768.585-1.428 1.112-1.465 1.17-.055.087-.068.44-.068 1.856 0 .962-.001 1.919-.004 2.126l-.004.378-.668-.013-.668-.014-.012-1.579c-.007-.868-.022-1.605-.034-1.637-.017-.044-.077-.04-.248.018-.483.165-1.095-.058-1.314-.48-.037-.071-.068-.257-.068-.412 0-.472-.066-.403 1.77-1.822.425-.328.818-.659.874-.734.095-.13.102-.215.125-1.62l.024-1.482.115-.093c.125-.102.156-.104 1.29-.102.962.003.97.008.988.646.006.25.024.507.038.57.026.111.029.112.158.027.072-.047.841-.633 1.71-1.303.869-.669 1.697-1.277 1.841-1.35.378-.195.724-.188 1.12.022.163.087.836.574 1.495 1.081 3.442 2.652 5.38 4.142 6.093 4.688 1.002.765 1.153.902 1.262 1.142a.725.725 0 01-.001.68c-.229.494-.805.724-1.338.535-.105-.038-.209-.058-.23-.044-.022.013-.04 1.31-.04 2.882v2.858l-.636.248c-.35.137-.655.249-.68.249-.026 0-.044-1.473-.044-3.646zm-8.235-.65c-.114-.114-.12-.15-.12-.647 0-.345.02-.547.057-.585.068-.067 1.19-.083 1.292-.018.046.03.058.203.048.692l-.013.652-.572.013c-.552.014-.575.01-.692-.107zm2.289.041c-.016-.042-.03-.336-.03-.654 0-.52.01-.582.094-.627.1-.054 1.109-.07 1.238-.021.064.024.077.124.077.598 0 .533-.007.577-.112.675-.102.096-.164.106-.675.106-.468 0-.567-.013-.592-.077zm-2.376-2.189c-.019-.018-.034-.269-.034-.557 0-.483.01-.534.117-.66.111-.129.143-.137.585-.153.258-.01.522-.003.589.013l.12.03-.013.667-.013.667-.659.014c-.362.007-.674-.002-.692-.02zm2.377-.044c-.057-.148-.034-1.213.028-1.275.089-.09.978-.077 1.158.015.18.094.2.177.182.801l-.014.51-.662.014c-.572.011-.667.002-.692-.065z" fill="#2bcea1"/>
</svg>
